X:161
T: ICH STEH AUF EINEM HOHEN BERG
N: E0089
O: Europa, Mitteleuropa, Deutschland; Frankreich, Elsass
R: erzaehlendes Volks - Lied, Sage, Liebe, Leid
M: 6/8
L: 1/8
K: D
A | D2E=F2G | A2AG2
A | _B2AG=FG | A4z
A | A_B=ccBA | A2GG2
G | =FGAAGF | =F2EE2
A | AG=FEDC | D4z

@@@ Tune index: 3811
